X:1
T: Jean Martin of Aberdeen
C:Muriel A Johnstone
R:Strathspey
Q: 128
K:D
M:4/4
L:1/16
|:F2|A3F A3F ((3AGF) E3F|D3F Ad3 B3A GF3|B3G B3G ((3BAG) F3G|E3G Be3 d3c BA3|
d3c dA3 B3A GB3|A3F AF3 D3E FD3|Bd3 G3F ED3 F3E|D4 D3E D6B2|
Af3 f3e fd3 A4|Bg3 g3f e3c A3G|Fd3 d3c dB3 F4|^Gd3 e3d c3B A3=G|
Fd3 Gd3 Ad3 ce3|db3 a3g f3e d3c|Bd3 G3F ED3 F3E|D4 D3E D6:|
